X:1
T:Calton Weaver
M:4/4
L:1/4
K:C
 C3/2 D/2E/2 C C/2| D C A, G,| C3/2 D/2 E G/2G/2| A A G2| A G c/2 E3/2|\
 D C A,/2 G,3/2| C C/2D/2 E/2 C E/2| D C A, G,| C3/2 D/2E/2 C z/2|\
 D C A,/2 G, z/2| C3/2 D/2E/2 G z/2| E D C2|
